packages/ffe-icons/icons/open/400/sm/qr_code.svg

<svg xmlns="http://www.w3.org/2000/svg" height="20" viewBox="0 -960 960 960" width="20"><path d="M144-563.96v-215.757Q144-795 154.338-805.5 164.677-816 179.96-816h215.757Q411-816 421.5-805.662 432-795.323 432-780.04v215.757Q432-549 421.662-538.5 411.323-528 396.04-528H180.283Q165-528 154.5-538.338 144-548.677 144-563.96ZM216-600h144v-144H216v144Zm-72 420.04v-215.757Q144-411 154.338-421.5 164.677-432 179.96-432h215.757Q411-432 421.5-421.662 432-411.323 432-396.04v215.757Q432-165 421.662-154.5 411.323-144 396.04-144H180.283Q165-144 154.5-154.338 144-164.677 144-179.96ZM216-216h144v-144H216v144Zm312-347.96v-215.757Q528-795 538.338-805.5 548.677-816 563.96-816h215.757Q795-816 805.5-805.662 816-795.323 816-780.04v215.757Q816-549 805.662-538.5 795.323-528 780.04-528H564.283Q549-528 538.5-538.338 528-548.677 528-563.96ZM600-600h144v-144H600v144Zm144 456v-72h72v72h-72ZM528-360v-72h72v72h-72Zm72 72v-72h72v72h-72Zm-72 72v-72h72v72h-72Zm72 72v-72h72v72h-72Zm72-72v-72h72v72h-72Zm0-144v-72h72v72h-72Zm72 72v-72h72v72h-72Z"/></svg>

<svg xmlns="http://www.w3.org/2000/svg" height="20" viewBox="0 -960 960 960" width="20"><path d="M144-563.96v-215.76q0-15.28 10.34-25.78 10.34-10.5 25.62-10.5h215.76q15.28 0 25.78 10.34 10.5 10.34 10.5 25.62v215.76q0 15.28-10.34 25.78-10.34 10.5-25.62 10.5H180.28q-15.28 0-25.78-10.34-10.5-10.34-10.5-25.62ZM216-600h144v-144H216v144Zm-72 420.04v-215.76q0-15.28 10.34-25.78 10.34-10.5 25.62-10.5h215.76q15.28 0 25.78 10.34 10.5 10.34 10.5 25.62v215.76q0 15.28-10.34 25.78-10.34 10.5-25.62 10.5H180.28q-15.28 0-25.78-10.34-10.5-10.34-10.5-25.62ZM216-216h144v-144H216v144Zm312-347.96v-215.76q0-15.28 10.34-25.78 10.34-10.5 25.62-10.5h215.76q15.28 0 25.78 10.34 10.5 10.34 10.5 25.62v215.76q0 15.28-10.34 25.78-10.34 10.5-25.62 10.5H564.28q-15.28 0-25.78-10.34-10.5-10.34-10.5-25.62ZM600-600h144v-144H600v144Zm144 456v-72h72v72h-72ZM528-360v-72h72v72h-72Zm72 72v-72h72v72h-72Zm-72 72v-72h72v72h-72Zm72 72v-72h72v72h-72Zm72-72v-72h72v72h-72Zm0-144v-72h72v72h-72Zm72 72v-72h72v72h-72Z"/></svg>
